teeny/outline/heart-circle.svg

<svg width="15" height="15" viewBox="0 0 15 15" fill="none" xmlns="http://www.w3.org/2000/svg">
<path d="M6.5 5.5L7.5 6.5L8.5 5.5C9.05228 4.94772 9.94772 4.94772 10.5 5.5C11.0523 6.05228 11.0523 6.94771 10.5 7.5L7.5 10.5L4.5 7.5C3.94772 6.94772 3.94772 6.05228 4.5 5.5C5.05228 4.94772 5.94771 4.94771 6.5 5.5Z" stroke="black"/>
<path d="M0.5 7.5C0.5 11.366 3.63401 14.5 7.5 14.5C11.366 14.5 14.5 11.366 14.5 7.5C14.5 3.63401 11.366 0.5 7.5 0.5C3.63401 0.5 0.5 3.63401 0.5 7.5Z" stroke="black"/>
</svg>

<svg viewBox="0 0 15 15" xmlns="http://www.w3.org/2000/svg"><g fill="none" stroke="#000"><path d="M6.5 5.5l1 1 1-1c.55-.56 1.44-.56 2 0 .55.55.55 1.44 0 2l-3 3 -3-3c-.56-.56-.56-1.45 0-2 .55-.56 1.44-.56 2 0Z"/><path d="M.5 7.5c0 3.86 3.13 7 7 7 3.86 0 7-3.14 7-7 0-3.87-3.14-7-7-7 -3.87 0-7 3.13-7 7Z"/></g></svg>
